assets/svg/icon-ui-scripts-blue.svg

<?xml version="1.0" encoding="UTF-8" standalone="no"?>
<svg width="61px" height="30px" viewBox="0 0 61 30" version="1.1" xmlns="http://www.w3.org/2000/svg" xmlns:xlink="http://www.w3.org/1999/xlink">
    <!-- Generator: Sketch 3.8.3 (29802) - http://www.bohemiancoding.com/sketch -->
    <title>blue/icon-ui-scripts-blue</title>
    <desc>Created with Sketch.</desc>
    <defs></defs>
    <g id="blue,-base" stroke="none" stroke-width="1" fill="none" fill-rule="evenodd">
        <g id="icons,-utility-(blue)" transform="translate(-537.000000, -633.000000)" fill="#1055FF">
            <g id="blue/icon-ui-scripts-blue" transform="translate(537.000000, 633.000000)">
                <g id="Group">
                    <g id="Page-1">
                        <g id="Group">
                            <path d="M19.265797,20.2406524 C18.9963922,20.40823 18.6257012,20.6829257 18.2490103,21.0517256 C17.188896,22.0896323 16.6965083,23.2973213 17.3968085,24.5518698 C17.7731374,25.226042 18.4670893,25.7681245 19.4744789,26.2078618 C22.0155022,27.3170481 24.563497,25.4011253 25.2466349,22.5115899 C25.9691477,19.4555072 24.4029493,16.5140815 20.8048821,15.3086085 C16.878203,13.9930394 14.415285,15.7718197 13.4263233,19.2519665 C13.206453,20.025688 13.0714379,20.8413387 13.0029413,21.6650839 C12.9571698,22.2155353 12.9462841,22.6968542 12.9552139,23.0728743 C12.9572517,23.1455575 12.9572517,23.1455575 12.9582784,23.1693382 L12.9708096,23.2930093 C13.1149281,24.2014208 13.5655495,25.4838149 14.5137681,26.7706263 C15.3861843,27.9545674 16.545376,28.8982531 18.0177594,29.5001075 C19.3952082,30.0631562 21.0885011,30.0048742 23.036819,29.4816479 C24.2116612,29.1661407 25.4460182,28.6887083 26.7056222,28.0927468 C27.5194868,27.7076798 28.2958105,27.295961 29.0101555,26.8838947 C29.2609068,26.73925 29.4864948,26.6045793 29.6837768,26.4831747 C29.8043888,26.4089519 29.890254,26.3546606 29.9382012,26.3235981 C30.0220401,26.2682098 30.1716951,26.1713996 30.3890711,26.0342112 C30.7547297,25.8034402 31.1745555,25.5457365 31.6416934,25.2678651 C32.9779564,24.4730052 34.4221877,23.6778992 35.9187792,22.9367581 C37.8550266,21.977891 39.7334764,21.1825701 41.4935496,20.6062023 C43.4947421,19.9508756 45.2760731,19.6017791 46.7695149,19.6017791 C49.821432,19.601779 52.4738189,19.6393114 54.7140532,19.7018232 C55.4967703,19.7236643 56.1717176,19.7470427 56.7373175,19.7703893 C57.0748251,19.7843207 57.2998308,19.795082 57.4107565,19.8011037 L60.2994677,19.957921 L58.2489652,17.9171654 L41.1202485,0.869868668 L40.9125553,0.663162763 L40.6296738,0.58673098 C40.3799125,0.51924795 39.9295524,0.426500158 39.2852909,0.336582939 C35.8929172,-0.13687822 31.4257566,0.0298226111 25.9947486,1.28027754 C23.0924281,1.94851832 20.560265,2.88195436 18.3787063,4.01518699 C15.5378536,5.49089645 13.7777328,6.99296885 12.942284,8.04364374 L14.6359149,8.00322822 L8.69520517,1.22297327 L8.52618363,1.03006549 L8.28940873,0.931478796 C8.18105756,0.886364283 8.02213267,0.835106358 7.81554953,0.789179574 C6.24609249,0.440263819 4.28427249,0.824268209 2.161105,2.40907448 C1.17313969,3.14652625 0.550202332,4.08256893 0.27164142,5.14993099 C-0.0404279708,6.34568752 0.0954072217,7.57409193 0.499269478,8.75028921 C0.647396362,9.18168985 0.798961311,9.51319321 0.911272618,9.71811854 L1.01758645,9.87749608 L15.0164521,27.3598821 L16.7391258,25.9804664 L2.74026016,8.49808038 L2.846574,8.65745791 C2.79087861,8.55583507 2.69043353,8.33614124 2.58655038,8.03359483 C2.31133806,7.23207409 2.22137739,6.41852871 2.40701466,5.70722223 C2.56012981,5.12053079 2.89786815,4.61303594 3.48120423,4.17761354 C5.07742646,2.98613759 6.38086949,2.73100315 7.33661348,2.94348054 C7.41281173,2.96042065 7.44880526,2.97202961 7.44111203,2.96882636 L7.03531559,2.67733188 L12.9760253,9.45758683 L13.8470457,10.4517005 L14.6696561,9.41717131 C14.8122674,9.23782092 15.154162,8.88040437 15.7144494,8.40225973 C16.6778039,7.58014108 17.8982741,6.75164049 19.3960315,5.97361535 C21.4126577,4.92605862 23.7694079,4.05728538 26.489917,3.43090551 C31.6536473,2.24198955 35.8498629,2.08539956 38.9802391,2.52229468 C39.5318727,2.59928415 39.8919697,2.67344305 40.0540338,2.71723115 L39.5634591,2.43409346 L56.6921758,19.4813902 L57.5303845,17.5974519 C57.409959,17.5909144 57.175417,17.5796971 56.8283352,17.5653704 C56.2529528,17.54162 55.5681856,17.5179015 54.7756108,17.4957854 C52.515008,17.4327052 49.8421042,17.3948825 46.7695149,17.3948825 C45.011725,17.3948826 43.0117487,17.7868281 40.8067485,18.5088953 C38.93647,19.1213518 36.9637121,19.956602 34.9393959,20.9590825 C33.3884582,21.7271369 31.8955781,22.549026 30.5134619,23.3711611 C30.0291671,23.6592381 29.5928613,23.9270577 29.2112285,24.1679103 C28.9802297,24.3136961 28.8174288,24.4190103 28.7295398,24.4771363 C28.5897045,24.5676697 28.3039613,24.743512 27.9074318,24.972248 C27.2421301,25.356024 26.5178396,25.7401474 25.7617765,26.0978665 C24.6129718,26.641405 23.4976364,27.0728015 22.4644318,27.3502715 C20.9389522,27.7599434 19.6977283,27.8026655 18.8527874,27.4572857 C17.7718958,27.0154583 16.9311983,26.3310554 16.2904155,25.46146 C15.8769475,24.9003495 15.5708631,24.2949422 15.3584767,23.6905256 C15.2339462,23.3361325 15.170283,23.0722462 15.1504465,22.9472125 L15.1629777,23.0708836 C15.162866,23.0691701 15.162866,23.0691701 15.1614884,23.0204794 C15.1543187,22.7185759 15.1634589,22.3144373 15.2022475,21.8479621 C15.2596968,21.1570728 15.3719801,20.4787492 15.5491696,19.8552209 C16.2260416,17.4733148 17.523084,16.5365587 20.103799,17.4011846 C22.6028976,18.2384664 23.5628965,20.0414087 23.0989433,22.0038371 C22.697205,23.7031086 21.4320881,24.6543925 20.3573664,24.185264 C19.7544876,23.9221003 19.4321665,23.6703183 19.3238085,23.4762011 C19.2457443,23.3363534 19.3624436,23.0501228 19.7929173,22.6286667 C20.0369688,22.3897277 20.2870202,22.2044304 20.4314437,22.1145948 L19.265797,20.2406524 L19.265797,20.2406524 Z" id="Path-1"></path>
                            <polygon id="Path-10" points="12.9365283 9.40986983 18.8160961 16.9333808 20.5549797 15.5744561 14.6754119 8.05094522"></polygon>
                            <path d="M21.0466898,11.3748904 C21.1145846,11.3385055 21.2506217,11.267283 21.4487508,11.1662142 C21.7824006,10.9960141 22.1661282,10.805898 22.5938593,10.60086 C23.8179717,10.0140672 25.1460583,9.42698498 26.5289499,8.87958572 C28.4889837,8.1037324 30.3940666,7.4737887 32.1764705,7.04167722 C34.4591093,6.48829284 36.4435464,6.28452256 38.0279538,6.48163207 L38.3004044,4.29161767 C36.4109931,4.05656391 34.176296,4.28603194 31.6565101,4.89690832 C29.7648064,5.35551758 27.7653898,6.01665411 25.7166991,6.82760109 C24.2826245,7.39526046 22.9080699,8.0028839 21.6398988,8.61079676 C21.1953308,8.82390575 20.795361,9.02206898 20.4459193,9.20032475 C20.2341935,9.30832944 20.08499,9.38644518 20.0042623,9.4297073 L21.0466898,11.3748904 L21.0466898,11.3748904 Z" id="Path-11"></path>
                            <path d="M25.246381,15.5546187 C25.3142757,15.5182338 25.4503129,15.4470113 25.648442,15.3459425 C25.9820917,15.1757424 26.3658193,14.9856263 26.7935505,14.7805883 C28.0176628,14.1937955 29.3457495,13.6067133 30.7286411,13.059314 C32.6886749,12.2834607 34.5937579,11.653517 36.3761618,11.2214055 C38.6588006,10.6680212 40.6432376,10.4642509 42.2276451,10.6613604 L42.5000956,8.47134599 C40.6106844,8.23629223 38.3759873,8.46576025 35.8562015,9.0766366 C33.9644977,9.53524586 31.965081,10.1963824 29.9163902,11.0073294 C28.4823156,11.5749888 27.107761,12.1826122 25.83959,12.7905251 C25.3950219,13.003634 24.9950521,13.2017973 24.6456105,13.380053 C24.4338847,13.4880577 24.2846812,13.5661735 24.2039535,13.6094356 L25.246381,15.5546187 L25.246381,15.5546187 Z" id="Path-11"></path>
                            <path d="M29.4460722,19.734347 C29.513967,19.6979621 29.6500041,19.6267396 29.8481332,19.5256708 C30.181783,19.3554708 30.5655106,19.1653547 30.9932417,18.9603167 C32.2173541,18.3735239 33.5454407,17.7864416 34.9283323,17.2390424 C36.8883661,16.463189 38.793449,15.8332453 40.5758529,15.4011339 C42.8584917,14.8477495 44.8429288,14.6439792 46.4273362,14.8410887 L46.6997868,12.6510743 C44.8103756,12.4160206 42.5756784,12.6454886 40.0558925,13.256365 C38.1641888,13.7149742 36.1647721,14.3761108 34.1160815,15.1870577 C32.6820069,15.7547171 31.3074523,16.3623405 30.0392812,16.9702534 C29.5947132,17.1833624 29.1947434,17.3815256 28.8453017,17.5597814 C28.6335759,17.6677861 28.4843724,17.7459018 28.4036447,17.7891639 L29.4460722,19.734347 L29.4460722,19.734347 Z" id="Path-11"></path>
                        </g>
                    </g>
                </g>
            </g>
        </g>
    </g>
</svg>

<svg width="61" height="30" viewBox="0 0 61 30" xmlns="http://www.w3.org/2000/svg"><title>blue/icon-ui-scripts-blue</title><g fill="#1055FF" fill-rule="evenodd"><path d="M19.266 20.24c-.27.168-.64.443-1.017.812-1.06 1.038-1.552 2.245-.852 3.5.376.674 1.07 1.216 2.077 1.656 2.542 1.109 5.09-.807 5.773-3.696.722-3.056-.844-5.998-4.442-7.203-3.927-1.316-6.39.463-7.379 3.943-.22.774-.355 1.59-.423 2.413-.046.55-.057 1.032-.048 1.408l.003.096.013.124c.144.908.595 2.19 1.543 3.478a8.095 8.095 0 0 0 3.504 2.73c1.377.562 3.07.504 5.019-.02 1.175-.315 2.409-.792 3.669-1.388a32.183 32.183 0 0 0 2.978-1.61c.12-.074.206-.128.254-.16a56.057 56.057 0 0 1 1.703-1.056 63.841 63.841 0 0 1 4.278-2.33c1.936-.96 3.814-1.754 5.575-2.33 2-.656 3.782-1.005 5.276-1.005 3.051 0 5.704.037 7.944.1a153.223 153.223 0 0 1 2.697.1l2.888.156-2.05-2.04L41.12.87l-.207-.207-.283-.076c-.25-.068-.7-.16-1.345-.25-3.392-.474-7.86-.307-13.29.943-2.903.669-5.435 1.602-7.616 2.735-2.841 1.476-4.601 2.978-5.437 4.029l1.694-.04-5.94-6.781-.17-.193L8.29.931A2.915 2.915 0 0 0 7.816.79C6.246.44 4.284.824 2.16 2.41c-.988.738-1.61 1.674-1.89 2.74C-.04 6.347.096 7.575.5 8.75c.148.432.3.763.412.968l.107.16L15.016 27.36l1.723-1.38L2.74 8.498l.107.16a4.409 4.409 0 0 1-.26-.624c-.276-.802-.366-1.615-.18-2.327.153-.586.49-1.094 1.074-1.53 1.596-1.19 2.9-1.446 3.856-1.234.076.017.112.029.104.026l-.406-.292 5.941 6.78.871.995.823-1.035c.142-.18.484-.537 1.044-1.015.964-.822 2.184-1.65 3.682-2.428 2.017-1.048 4.373-1.917 7.094-2.543 5.164-1.189 9.36-1.346 12.49-.909.552.077.912.151 1.074.195l-.49-.283 17.128 17.047.838-1.884-.702-.032c-.575-.023-1.26-.047-2.052-.07-2.261-.062-4.934-.1-8.006-.1-1.758 0-3.758.392-5.963 1.114-1.87.612-3.843 1.448-5.868 2.45a66.025 66.025 0 0 0-5.728 3.209c-.23.146-.394.251-.481.31a29.996 29.996 0 0 1-2.968 1.62c-1.149.543-2.264.975-3.298 1.252-1.525.41-2.766.453-3.611.107a5.896 5.896 0 0 1-2.563-1.996 6.772 6.772 0 0 1-.932-1.77 4.802 4.802 0 0 1-.208-.744l.013.124-.002-.05c-.007-.302.002-.707.041-1.173.058-.69.17-1.37.347-1.993.677-2.382 1.974-3.318 4.555-2.454 2.499.837 3.459 2.64 2.995 4.603-.402 1.7-1.667 2.65-2.742 2.181-.603-.263-.925-.515-1.033-.709-.078-.14.038-.426.469-.847.244-.24.494-.425.638-.514l-1.165-1.874z"/><path d="M12.937 9.41l5.88 7.523 1.738-1.359-5.88-7.523zM21.047 11.375c.068-.036.204-.108.402-.209a61.65 61.65 0 0 1 5.08-2.287c1.96-.775 3.865-1.405 5.647-1.837 2.283-.554 4.268-.757 5.852-.56l.272-2.19c-1.889-.235-4.124-.006-6.643.605-1.892.459-3.892 1.12-5.94 1.93A63.838 63.838 0 0 0 20.446 9.2c-.212.108-.361.186-.442.23l1.043 1.945zM25.246 15.555c.068-.037.204-.108.402-.21a61.65 61.65 0 0 1 5.08-2.287c1.96-.775 3.866-1.404 5.648-1.837 2.283-.553 4.267-.757 5.852-.56l.272-2.19c-1.89-.235-4.124-.005-6.644.606-1.892.458-3.89 1.12-5.94 1.93a63.838 63.838 0 0 0-5.27 2.373c-.212.108-.361.186-.442.23l1.042 1.945zM29.446 19.734a52.038 52.038 0 0 1 1.547-.774 61.65 61.65 0 0 1 3.935-1.721c1.96-.776 3.865-1.406 5.648-1.838 2.282-.553 4.267-.757 5.851-.56l.273-2.19c-1.89-.235-4.124-.006-6.644.605-1.892.459-3.891 1.12-5.94 1.931a63.838 63.838 0 0 0-5.27 2.373c-.212.108-.362.186-.442.23l1.042 1.944z"/></g></svg>
